X: 1265
T: Bill Case's Dream
C:Bill Case
B: australian traditional tunes wiki
M:3/4
L:1/8
R: Waltz
Q: 1/4=100
K:D
V:1 
aa||"D"a2b2a2|"D"fdg2f2|"D"Ade2d2|"D"F4G2|"D"A4B2|"F#7"c3d ef|"G"g2B2B2|"G"B2ge ge|
"G"bbb2 ((3gbg)|"G"e2g2b2|"D"a2 ((3aba) ((3faf)|"D"e2def2|"E7"B2B2c2|"E7"d2dA df|"A7"e2a2g2|"A7"f2e2aa|
"D"a2b2 ((3aba)|"D"fdg2f2|"D"Ade2d2|"D"F4GG|"D"A2B2c2|"D"d2e2f2|"G"BcB2B2|"G"B4c2|
"G"ddd2A2|"G"d2b2b2|"D"a2ab af|"D"dA df af|"A7"g2g2e2|"A7"B2c2e2|"D"d3dd2|"D"d4A2||
"D"DF AB AF|"D"DF AB AF|"D"dc BA GF|"A7"E4D2|"A7"C2E2E2|"A7"E4A2|"A7"cB AG FE|"D"F4E2|
"D"DF AB AF|"D"DF AB Ad|"D"((3faf)e2d2|"G"B4c2|"G"d2 ((3cec) ((3BcB)|"D"A2F3A|"A7"G2C2E2|"D"D3DD2|"D"D6||
% abcbook-tune_id 6342d53af4a475dd3193bfba


% abcbook-boost 0
% abcbook-tablature 
% abcbook-transpose 
% abcbook-lastupdated 1665324356670
% abcbook-soundfonts 
% abcbook-repeats 1
% NFF Book 2014

